_site/images/features-page/circle-support-blue.svg

<svg fill="none" height="42" viewBox="0 0 42 42" width="42" xmlns="http://www.w3.org/2000/svg"><circle cx="21" cy="21" fill="#3ad9cf" r="21"/><path clip-rule="evenodd" d="m25.2508 17.5c0 1.4279-.6204 2.7855-1.7 3.72 2.8786 1.2798 4.7381 4.1298 4.75 7.28 0 .5523-.4477 1-1 1s-1-.4477-1-1c0-3.3137-2.6863-6-6-6s-6 2.6863-6 6c0 .5523-.4477 1-1 1s-1-.4477-1-1c.003-3.1385 1.8409-5.9854 4.7-7.28-1.0983-.9252-1.7375-2.284-1.75-3.72 0-2.7614 2.2386-5 5-5s5 2.2386 5 5zm-8 0c0 1.6569 1.3431 3 3 3 .7956 0 1.5587-.3161 2.1213-.8787s.8787-1.3257.8787-2.1213c0-1.6569-1.3432-3-3-3-1.6569 0-3 1.3431-3 3zm11.5-2c-.5523 0-1 .4477-1 1v2c0 .5523.4477 1 1 1s1-.4477 1-1v-2c0-.5523-.4477-1-1-1zm-1.04 6c.0037-.2648.1072-.5184.29-.71.2861-.2885.7182-.3752 1.0935-.2194.3752.1558.6188.5231.6165.9294.0034.1312-.024.2613-.08.38-.091.2512-.2888.4491-.54.54-.2421.107-.518.107-.76 0-.1212-.0507-.2328-.1217-.33-.21-.1872-.1887-.2916-.4442-.29-.71z" fill="#fff" fill-rule="evenodd"/></svg>

<svg width="42" height="42" viewBox="0 0 42 42" fill="none" xmlns="http://www.w3.org/2000/svg">
<circle cx="21" cy="21" r="21" fill="#3AD9CF"/>
<path fill-rule="evenodd" clip-rule="evenodd" d="M25.2508 17.5C25.2508 18.9279 24.6304 20.2855 23.5508 21.22C26.4294 22.4998 28.2889 25.3498 28.3008 28.5C28.3008 29.0523 27.8531 29.5 27.3008 29.5C26.7485 29.5 26.3008 29.0523 26.3008 28.5C26.3008 25.1863 23.6145 22.5 20.3008 22.5C16.9871 22.5 14.3008 25.1863 14.3008 28.5C14.3008 29.0523 13.8531 29.5 13.3008 29.5C12.7485 29.5 12.3008 29.0523 12.3008 28.5C12.3038 25.3615 14.1417 22.5146 17.0008 21.22C15.9025 20.2948 15.2633 18.936 15.2508 17.5C15.2508 14.7386 17.4894 12.5 20.2508 12.5C23.0122 12.5 25.2508 14.7386 25.2508 17.5ZM17.2508 17.5C17.2508 19.1569 18.5939 20.5 20.2508 20.5C21.0464 20.5 21.8095 20.1839 22.3721 19.6213C22.9347 19.0587 23.2508 18.2956 23.2508 17.5C23.2508 15.8431 21.9076 14.5 20.2508 14.5C18.5939 14.5 17.2508 15.8431 17.2508 17.5ZM28.7508 15.5C28.1985 15.5 27.7508 15.9477 27.7508 16.5V18.5C27.7508 19.0523 28.1985 19.5 28.7508 19.5C29.3031 19.5 29.7508 19.0523 29.7508 18.5V16.5C29.7508 15.9477 29.3031 15.5 28.7508 15.5ZM27.7108 21.5C27.7145 21.2352 27.818 20.9816 28.0008 20.79C28.2869 20.5015 28.719 20.4148 29.0943 20.5706C29.4695 20.7264 29.7131 21.0937 29.7108 21.5C29.7142 21.6312 29.6868 21.7613 29.6308 21.88C29.5398 22.1312 29.342 22.3291 29.0908 22.42C28.8487 22.527 28.5728 22.527 28.3308 22.42C28.2096 22.3693 28.098 22.2983 28.0008 22.21C27.8136 22.0213 27.7092 21.7658 27.7108 21.5Z" fill="white"/>
</svg>
